X: 2
P:The Shetland Fiddler
C:From Matt Petrie
C:Arr. T. Traub 7-9-03
R:reel
M:4/4
K:Eb
L:1/8
|: B2 |"Eb"e2 ge B2 gf|"Eb"efga bgeg|"Fm"f2 af c2 fe|"Bb"defg afdf|"Eb"e2 ge B2 gf|
"Eb"efga bgeg|"Eb"g/2a/2b ge g/2a/2b ge|"Bb"cafd "Eb"e2 :||: de |"Bb"fBgB aBbB|"Bb"gbbg agfe|
"Bb"Bbcb dbeb|"Bb"fgfe dcBd|"Eb"eBfB gBaB|"Eb"gbbg agfe |"Eb"g/2a/2b ge g/2a/2b ge|"Bb"cafd "Eb"e2 :|
